frontend/public/svg/interface/user-add.svg

<svg width="157" height="151" viewBox="0 0 157 151" fill="none" xmlns="http://www.w3.org/2000/svg">
<g clip-path="url(#clip0)">
<path d="M111.855 80.0366C116.105 79.8137 120.107 79.0917 123.996 79.489C141.568 81.2841 154.692 94.7186 156.477 112.327C158.084 128.174 150.202 141.213 135.381 146.976C124.339 151.27 113.201 151.95 102.071 147.243C94.338 143.972 88.3304 138.836 84.8939 130.993C84.7223 130.604 84.4802 130.241 84.2233 129.78C80.9673 129.955 77.7761 130.134 74.5843 130.298C57.0052 131.194 39.4284 132.145 21.8451 132.941C17.0971 133.156 12.3297 132.925 7.5681 132.829C6.46398 132.799 5.36921 132.617 4.31477 132.288C1.19736 131.327 0.161726 129.17 1.25502 126.123C5.94932 112.821 13.1719 100.555 22.524 90.0026C33.9347 77.1708 47.8576 69.0784 65.1166 67.3066C76.9243 66.0947 88.2637 68.0797 99.165 72.6856C101.533 73.6078 103.842 74.6758 106.079 75.8838C108.077 77.1637 110.005 78.5499 111.855 80.0366ZM103.099 84.6534C93.8979 80.5175 85.002 77.1073 75.1494 76.6524C61.4419 76.0192 49.0383 79.4715 38.2031 87.9236C26.5587 97.0069 18.0285 108.674 11.1315 121.617C10.8329 122.281 10.5793 122.964 10.3723 123.662C16.6278 124.229 78.94 119.974 82.8756 118.721C82.9733 118.26 83.1196 117.733 83.1921 117.198C84.1579 110.606 86.3335 104.25 89.6082 98.4495C90.7073 96.5332 92.0763 94.7853 93.6732 93.2598C96.5712 90.4057 99.675 87.7564 103.1 84.6534H103.099ZM118.466 138.891C123.795 138.857 129.057 137.678 133.893 135.432C137.563 133.798 140.638 131.066 142.692 127.609C147.451 119.564 146.535 106.553 140.513 99.4009C135.716 93.7024 129.72 89.7661 122.156 89.1426C113.381 88.42 105.924 91.5281 100.856 98.8027C95.7789 106.09 94.5549 114.526 95.4876 123.249C95.922 126.818 97.7008 130.086 100.46 132.387C105.594 136.957 111.695 138.853 118.467 138.891H118.466Z" fill="black"/>
<path d="M67.2042 59.5951C59.6796 59.286 52.3087 57.7227 45.8299 53.1201C38.5115 47.9213 32.7337 38.2483 37.27 26.1696C38.4131 23.0565 39.962 20.1084 41.8762 17.4013C44.4933 13.8236 47.3818 10.453 50.5164 7.31989C57.572 0.191128 69.6122 -1.57614 78.1152 3.64665C89.2675 10.4948 95.7483 20.7795 97.0222 33.7597C97.7789 41.4639 94.3521 48.029 88.2377 52.9277C82.1725 57.7863 75.0353 59.4221 67.2042 59.5951ZM66.1951 49.7722C70.9029 49.6536 75.4793 49.0888 79.5806 46.5606C85.1604 43.122 87.413 37.4636 85.7378 31.1443C84.4309 26.2047 81.7433 22.0557 78.2873 18.3908C74.8443 14.7396 70.8162 12.273 65.575 12.1142C59.8045 11.9393 55.4372 15.0403 51.4175 18.4181C48.4722 20.893 46.6876 24.4827 45.4862 28.2473C42.8219 36.5951 45.7367 43.3844 53.6597 47.1711C57.6342 49.0744 61.8869 49.5914 66.1951 49.7716V49.7722Z" fill="black"/>
<path d="M124.785 118.038C124.785 121.184 124.835 123.73 124.762 126.273C124.746 127.377 124.569 128.472 124.238 129.525C124.03 130.227 123.596 130.84 123.004 131.271C122.413 131.702 121.696 131.926 120.964 131.909C120.232 131.951 119.508 131.742 118.91 131.318C118.312 130.893 117.876 130.277 117.674 129.571C117.337 128.295 117.166 126.981 117.166 125.662C117.09 123.253 117.144 120.839 117.144 118.065C114.201 118.065 111.457 118.139 108.721 118.038C106.955 117.997 105.198 117.782 103.475 117.395C102.717 117.225 102.039 116.805 101.549 116.202C101.06 115.6 100.786 114.85 100.774 114.073C100.761 113.296 101.01 112.538 101.48 111.919C101.951 111.301 102.615 110.86 103.367 110.665C104.748 110.287 106.172 110.085 107.604 110.064C110.673 109.978 113.747 110.037 116.94 110.037C116.94 106.91 116.926 104.168 116.947 101.428C116.898 100.437 116.959 99.4433 117.128 98.4654C117.452 97.0876 118.263 96.0383 119.866 96.0221C120.542 95.9729 121.213 96.1679 121.758 96.571C122.304 96.9748 122.687 97.5607 122.838 98.2223C123.255 100.054 123.551 101.912 123.724 103.784C123.953 105.737 124.071 107.702 124.241 109.739C126.174 109.739 127.813 109.786 129.448 109.726C131.329 109.658 133.206 109.405 135.085 109.394C138.087 109.376 139.98 110.825 140.146 113.097C140.3 115.225 138.749 116.966 135.965 117.425C133.776 117.737 131.572 117.937 129.362 118.023C127.951 118.108 126.53 118.038 124.785 118.038Z" fill="black"/>
</g>
<defs>
<clipPath id="clip0">
<rect width="156" height="151" fill="white" transform="translate(0.777344)"/>
</clipPath>
</defs>
</svg>

<svg xmlns="http://www.w3.org/2000/svg" width="157" height="151" fill="none" viewBox="0 0 157 151"><g fill="#000" clip-path="url(#a)"><path d="M111.855 80.037c4.25-.223 8.252-.945 12.141-.548 17.572 1.795 30.696 15.23 32.481 32.838 1.607 15.847-6.275 28.886-21.096 34.649-11.042 4.294-22.18 4.974-33.31.267-7.733-3.271-13.74-8.407-17.177-16.25-.172-.389-.414-.752-.67-1.213-3.257.175-6.448.354-9.64.518-17.579.896-35.156 1.847-52.739 2.643-4.748.215-9.515-.016-14.277-.112a12 12 0 0 1-3.253-.541c-3.118-.961-4.153-3.118-3.06-6.165a109.3 109.3 0 0 1 21.269-36.12c11.41-12.832 25.334-20.925 42.593-22.696 11.807-1.212 23.147.773 34.048 5.379a62 62 0 0 1 6.914 3.198 66 66 0 0 1 5.776 4.153m-8.756 4.616c-9.201-4.136-18.097-7.546-27.95-8-13.707-.634-26.11 2.819-36.946 11.27-11.644 9.084-20.175 20.751-27.071 33.694a16 16 0 0 0-.76 2.045c6.256.567 68.568-3.688 72.504-4.941.097-.461.244-.988.316-1.523a54.1 54.1 0 0 1 6.416-18.748 23 23 0 0 1 4.065-5.19c2.898-2.854 6.002-5.504 9.427-8.607zm15.367 54.238a37.2 37.2 0 0 0 15.427-3.459 19.4 19.4 0 0 0 8.799-7.823c4.759-8.045 3.843-21.056-2.179-28.208-4.797-5.699-10.793-9.635-18.357-10.258-8.775-.723-16.232 2.385-21.3 9.66-5.077 7.287-6.301 15.723-5.368 24.446a14.12 14.12 0 0 0 4.972 9.138c5.134 4.57 11.235 6.466 18.007 6.504zM67.204 59.595c-7.524-.309-14.895-1.872-21.374-6.475-7.318-5.199-13.096-14.872-8.56-26.95a37.7 37.7 0 0 1 4.606-8.769 86 86 0 0 1 8.64-10.081c7.056-7.129 19.096-8.896 27.6-3.673 11.151 6.848 17.632 17.132 18.906 30.113.757 7.704-2.67 14.269-8.784 19.168-6.065 4.858-13.203 6.494-21.034 6.667m-1.009-9.823c4.708-.118 9.284-.683 13.386-3.211 5.58-3.439 7.832-9.097 6.157-15.417-1.307-4.94-3.995-9.088-7.45-12.753-3.444-3.651-7.472-6.118-12.713-6.277-5.77-.175-10.138 2.926-14.158 6.304-2.945 2.475-4.73 6.065-5.93 9.83-2.665 8.347.25 15.136 8.173 18.923 3.974 1.903 8.227 2.42 12.535 2.6z"/><path d="M124.785 118.038c0 3.146.05 5.692-.023 8.235a11.4 11.4 0 0 1-.524 3.252 3.33 3.33 0 0 1-3.274 2.384 3.23 3.23 0 0 1-3.29-2.338 15.3 15.3 0 0 1-.508-3.909c-.076-2.409-.022-4.823-.022-7.597-2.943 0-5.687.074-8.423-.027a27 27 0 0 1-5.246-.643 3.455 3.455 0 0 1-2.701-3.322 3.47 3.47 0 0 1 .706-2.154 3.47 3.47 0 0 1 1.887-1.254 17 17 0 0 1 4.237-.601c3.069-.086 6.143-.027 9.336-.027 0-3.127-.014-5.869.007-8.609-.049-.991.012-1.985.181-2.963.324-1.377 1.135-2.427 2.738-2.443a2.836 2.836 0 0 1 2.972 2.2 43 43 0 0 1 .886 5.562c.229 1.953.347 3.918.517 5.955 1.933 0 3.572.047 5.207-.013 1.881-.068 3.758-.321 5.637-.332 3.002-.018 4.895 1.431 5.061 3.703.154 2.128-1.397 3.869-4.181 4.328a65 65 0 0 1-6.603.598c-1.411.085-2.832.015-4.577.015"/></g><defs><clipPath id="a"><path fill="#fff" d="M.777 0h156v151h-156z"/></clipPath></defs></svg>
